X: 18
T: Kid On The Mountain, The
Z: tziguk
S: https://thesession.org/tunes/52#setting53406
R: slip jig
M: 9/8
L: 1/8
K: Emin
|:EDE FEF G2 F|E3 BcA BGD|E3 FEF G2 A|BAG FAG FED:|
|:BGB AFA G2 D|GAB dge dBA|BGB AFA G2 A|BAG FAG FED:|
|:gfg eBe e2 f|gfg efg afd|gfg eBe e2 a|bag fag fed:|
|:eBB e2f g2f|eBB efg afd|eBB e2f g2a|bag fag fed:|
|:edB dBA G2D|GAB dge dBA|edB dBA G2A|BAG FAG FED:|

